src/assets/icons/bell.svg

<svg width="20" height="20" viewBox="0 0 20 20" fill="none" xmlns="http://www.w3.org/2000/svg">
<path fill-rule="evenodd" clip-rule="evenodd" d="M9.99746 0.832031C8.43259 0.832031 6.94351 1.49548 5.85369 2.6579C4.76634 3.81774 4.16412 5.38031 4.16412 6.9987C4.16412 9.99575 3.56286 11.8628 3.00551 12.9527C2.72602 13.4993 2.45391 13.8577 2.26504 14.0703C2.17039 14.1769 2.09603 14.2475 2.05128 14.2873C2.02888 14.3072 2.01386 14.3194 2.00736 14.3246L2.00489 14.3265C1.71632 14.5379 1.59453 14.9105 1.7036 15.2521C1.81388 15.5976 2.13486 15.832 2.49745 15.832H17.4975C17.8601 15.832 18.181 15.5976 18.2913 15.2521C18.4004 14.9105 18.2786 14.5379 17.99 14.3265L17.9876 14.3246C17.9811 14.3194 17.966 14.3072 17.9436 14.2873C17.8989 14.2475 17.8245 14.1769 17.7299 14.0703C17.541 13.8577 17.2689 13.4993 16.9894 12.9527C16.4321 11.8628 15.8308 9.99575 15.8308 6.9987C15.8308 5.38031 15.2286 3.81775 14.1412 2.65791C13.0517 1.49674 11.5617 0.832031 9.99746 0.832031ZM2.00489 14.3265L2.00736 14.3246L2.00489 14.3265ZM2.00736 14.3246L2.00414 14.3271L2.00736 14.3246ZM15.5055 13.7116C15.5887 13.8743 15.6724 14.0254 15.7553 14.1654H4.2396C4.32254 14.0254 4.40619 13.8743 4.4894 13.7116C5.18205 12.3571 5.83079 10.2241 5.83079 6.9987C5.83079 5.78876 6.28191 4.63799 7.06955 3.79783C7.8564 2.95858 8.91065 2.4987 9.99746 2.4987C11.0831 2.4987 12.1383 2.95916 12.9253 3.79782L14.2156 8.52455C14.382 10.9148 14.9285 12.5833 15.5055 13.7116ZM14.2156 8.52455C14.1822 8.04556 14.1641 7.53711 14.1641 6.9987C14.1641 5.78888 13.7128 4.63795 12.9253 3.79782L14.2156 8.52455Z" fill="#E8A76D"/>
<path d="M9.27698 17.0812C9.04639 16.6829 8.53657 16.5469 8.13827 16.7775C7.73996 17.0081 7.604 17.5179 7.8346 17.9162C8.05414 18.2954 8.36954 18.6103 8.74915 18.8292C9.12877 19.048 9.55926 19.1632 9.99746 19.1632C10.4356 19.1632 10.8661 19.048 11.2458 18.8292C11.6254 18.6103 11.9408 18.2954 12.1603 17.9162C12.3909 17.5179 12.2549 17.0081 11.8566 16.7775C11.4583 16.5469 10.9485 16.6829 10.7179 17.0812C10.6448 17.2075 10.5397 17.3124 10.4133 17.3853C10.2868 17.4582 10.1434 17.4966 9.99746 17.4966C9.85149 17.4966 9.70809 17.4582 9.58163 17.3853C9.45518 17.3124 9.35012 17.2075 9.27698 17.0812Z" fill="#E8A76D"/>
</svg>

<svg xmlns="http://www.w3.org/2000/svg" width="20" height="20" fill="none"><path fill="#E8A76D" fill-rule="evenodd" d="M9.997.832c-1.564 0-3.053.663-4.143 1.826-1.088 1.16-1.69 2.722-1.69 4.34 0 2.998-.601 4.865-1.158 5.955-.28.546-.552.905-.741 1.117a3 3 0 0 1-.258.255l-.002.002a.833.833 0 0 0 .492 1.505h15a.833.833 0 0 0 .493-1.506l-.002-.001-.044-.038c-.045-.04-.12-.11-.214-.217a5.3 5.3 0 0 1-.74-1.117c-.558-1.09-1.16-2.957-1.16-5.954 0-1.619-.601-3.181-1.689-4.341-1.09-1.161-2.58-1.826-4.144-1.826M2.005 14.326l.002-.001zm.002-.001-.003.002zm13.499-.613q.124.243.25.453H4.24q.124-.21.25-.453c.692-1.355 1.34-3.488 1.34-6.713 0-1.21.452-2.361 1.24-3.201.786-.84 1.84-1.3 2.927-1.3s2.141.461 2.928 1.3l1.29 4.727c.167 2.39.713 4.058 1.29 5.187m-1.29-5.187a22 22 0 0 1-.052-1.526c0-1.21-.451-2.361-1.239-3.201z" clip-rule="evenodd"/><path fill="#E8A76D" d="M9.277 17.081a.833.833 0 1 0-1.442.835 2.5 2.5 0 0 0 4.325 0 .833.833 0 1 0-1.442-.835.833.833 0 0 1-1.441 0"/></svg>
